!!!!SEGMENT: pl-wn--mus-57--001-001_sowinski-wojciech--messe-breve-kyrie.krn
!!!cenid: 18xx:3572
!!!COM: Sowiński, Wojciech
!!!COM-rismid: pe30008543
!!!CDT:
!!!CNT:
!!!OPR: Messe Breve
!!!OTL: Kyrie
!!!OMV: 001
!!!PDT: @SMS-siglum: PL-Wn
!!!AGN: 1872
!!!SMS-shelfmark: Mus.57
!!!SMS-shelfwork: 001-001 M
!!!SMS-variant:
!!!SMS-altvar:
!!!NIFC-rismid:
!!!URL-scan: https://polona.pl/item/messe-breve-a-deux-voix-egales-avec-accompagnement-d-orgue-composee-pour-l-eglise-de,NDI0MDY1OTQ/1/#info:metadata
!!!ONB-nifc: UWAGA: części Mszy: 1. Kyrie, 2. Gloria, 3. Credo, 4. Sanctus, 5. Benedictus, 6. Agnus Dei
!!!key: B-
**kern	**kern	**dynam	**kern	**text	**dynam	**kern	**text	**dynam
*part3	*part3	*part3	*part2	*part2	*part2	*part1	*part1	*part1
*staff4	*staff3	*	*staff2	*staff2	*	*staff1	*staff1	*
*I"Orgue ou Harmonium	*	*	*I"Basse	*	*	*I"Tenor ou Bariton	*	*
*I'org	*	*	*I'B	*	*	*I'T	*	*
*ICklav	*	*	*ICvox	*	*	*ICvox	*	*
*Iorgan	*	*	*Ibass	*	*	*Itenor	*	*
*clefF4	*clefG2	*	*clefF4	*	*	*clefGv2	*	*
*k[b-e-]	*k[b-e-]	*	*k[b-e-]	*	*	*k[b-e-]	*	*
*B-:	*B-:	*	*B-:	*	*	*B-:	*	*
*M3/4	*M3/4	*	*M3/4	*	*	*M3/4	*	*
=1	=1	=1	=1	=1	=1	=1	=1	=1
!LO:TX:t=P:problem: all\right	!LO:TX:t=P:problem: all\right	!	!	!	!	!	!	!
!	!LO:TX:t=andante sostenuto	!	!	!	!	!	!	!
2.BB-\ 2.D 2.F 2.B-	([2b-\ [2dd [2ff 2bb-	mf	2.r	.	.	2.r	.	.
.	4b-\]) 4dd] 4ff] 4aa	.	.	.	.	.	.	.
=2	=2	=2	=2	=2	=2	=2	=2	=2
*^	*^	*	*	*	*	*	*	*
*	*^	*	*	*	*	*	*	*	*	*
2.B-/	2E-\	2.BB-\	(4gg/	2b-\ 2ee-	.	2.r	.	.	2.r	.	.
.	.	.	4aa/	.	.	.	.	.	.	.	.
.	4G\	.	4bb-/)	4b-\	.	.	.	.	.	.	.
*v	*v	*v	*	*	*	*	*	*	*	*	*
=3	=3	=3	=3	=3	=3	=3	=3	=3	=3
*	*	*^	*	*	*	*	*	*	*
(2.BB-\ 2.F 2.A	2ccc/	4ff\	2cc\	sf	2.r	.	.	2.r	.	.
.	.	4aa\	.	.	.	.	.	.	.	.
.	4ryy	4ff\	4ryy	> ]	.	.	.	.	.	.
*	*v	*v	*v	*	*	*	*	*	*	*
=4	=4	=4	=4	=4	=4	=4	=4	=4
2BB-\) 2F 2B-	2ddd\	.	2.r	.	.	2.r	.	.
4r	4bb-\	.	.	.	.	.	.	.
=5	=5	=5	=5	=5	=5	=5	=5	=5
2BBB-/ 2BB-	(2b-\ 2dd 2ff 2bb-	f	2.r	.	.	2.r	.	.
4DD/ 4D	4b-\) 4dd 4ff 4aa	.	.	.	.	.	.	.
=6	=6	=6	=6	=6	=6	=6	=6	=6
*	*^	*	*	*	*	*	*	*
2EE-/ 2E-	4gg/	2b-\ 2ee-	<	2.r	.	.	2.r	.	.
.	4aa/	.	.	.	.	.	.	.	.
4DD/ 4D	4bb-/	4b-\	[	.	.	.	.	.	.
*	*v	*v	*	*	*	*	*	*	*
!!LO:LB:g=original	!	!	!	!	!	!	!	!
=7	=7	=7	=7	=7	=7	=7	=7	=7
2CC/ 2C	([2cc\ 2ee- 2ccc	>	2.r	.	.	2.r	.	.
4EEn/ 4En	8cc\L]) 8bb-	.	.	.	.	.	.	.
.	8gg\J	]	.	.	.	.	.	.
=8	=8	=8	=8	=8	=8	=8	=8	=8
2FF/ 2F	(4ff\	.	2.r	.	.	2.r	.	.
.	4cc\ 4ee-	.	.	.	.	.	.	.
4r	4a\) 4cc	.	.	.	.	.	.	.
=9	=9	=9	=9	=9	=9	=9	=9	=9
*	*^	*	*	*	*	*	*	*
!	!	!	!	!	!	!	!	!	!LO:DY:a
2BB-\ 2F	(4b-/	2d\	fp	2.r	.	.	2B-^^\	Ky-	p
.	4f/	.	.	.	.	.	.	.	.
4D\	4a/	4B-\ 4f	.	.	.	.	4A\	-ri-	.
=10	=10	=10	=10	=10	=10	=10	=10	=10	=10
*^	*	*	*	*	*	*	*	*	*
4E-/	2.BB-\ 2.E-	4g/	2B-\ 2e-	p	2.r	.	.	(4G\	-e	.
4F/	.	4a/	.	.	.	.	.	4A\)	.	.
4G/	.	4b-/	4ryy	.	.	.	.	4B-\	e-	.
*v	*v	*	*	*	*	*	*	*	*	*
*	*v	*v	*	*	*	*	*	*	*
=11	=11	=11	=11	=11	=11	=11	=11	=11
2BB-\ 2E- 2F 2A	8cc/L)	.	2.r	.	.	2c^^\	-le-	.
.	8f/	.	.	.	.	.	.	.
.	8a/	.	.	.	.	.	.	.
.	8cc/	.	.	.	.	.	.	.
4F\	8a/	.	.	.	.	4d\	-i-	.
.	8f/J	.	.	.	.	.	.	.
=12	=12	=12	=12	=12	=12	=12	=12	=12
2BB-\ 2B-	8b-/L	.	2.r	.	.	2B-\	-son	.
.	8f/J	.	.	.	.	.	.	.
.	8dd/L	.	.	.	.	.	.	.
.	8b-/	.	.	.	.	.	.	.
4r	8f/	.	.	.	.	4r	.	.
.	8d/J	.	.	.	.	.	.	.
=13	=13	=13	=13	=13	=13	=13	=13	=13
*^	*	*	*	*	*	*	*	*
2BBB-^^/ 2BB-	4E-\	4r	.	2BB-\	Ky-	.	2B-\	Ky-	.
.	4C\	(4d/ 4b-	.	.	.	.	.	.	.
4D/	4ryy	4f/) 4a	.	4D\	-ri-	.	4A\	-ri-	.
*v	*v	*	*	*	*	*	*	*	*
!!LO:LB:g=original	!	!	!	!	!	!	!	!
=14	=14	=14	=14	=14	=14	=14	=14	=14
*	*^	*	*	*	*	*	*	*
!	!	!	!	!	!	!LO:DY:a	!	!	!
4E-\	4e-/ 4g	4ryy	.	2E-\	-e	<	(4G/	-e	.
!	!	!	!	!	!	!	!	!	!LO:DY:a
4C/	4a/	8f\L	.	.	.	.	4A/)	.	<
.	.	8e-\J	.	.	.	.	.	.	.
4BB-/	4b-/	4d\	.	4D\	e-	[	4B-\	e-	[[
*	*v	*v	*	*	*	*	*	*	*
=15	=15	=15	=15	=15	=15	=15	=15	=15
2CC'^^/ 2C	4e-/ 4cc	.	2C\	-le-	.	2c\	-le-	.
.	(8bn\L	.	.	.	.	.	.	.
.	8cc\	.	.	.	.	.	.	.
4C\ 4En	8b-X\	.	4En\	-i-	.	4G\	-i-	.
.	8cc\J)	.	.	.	.	.	.	.
=16	=16	=16	=16	=16	=16	=16	=16	=16
!	!	!	!	!	!LO:DY:a	!	!	!LO:DY:a
4FF/ 4F	(8a/L	.	2F\	-son	p	2A\	-son	p
.	8cc/	.	.	.	.	.	.	.
2r	8a/	.	.	.	.	.	.	.
.	8g/	.	.	.	.	.	.	.
.	8f/	.	4r	.	.	4r	.	.
.	8e-/J)	.	.	.	.	.	.	.
=17	=17	=17	=17	=17	=17	=17	=17	=17
8qBBB-/ 8qCC 8qDD	.	.	.	.	.	.	.	.
!	!	!	!	!	!LO:DY:a	!	!	!
2BB-/	8d/L	.	2BB-/	Ky-	mf	2.r	.	.
.	8B-/J 8d 8f	.	.	.	.	.	.	.
*	*tremolo	*	*	*	*	*	*	*
.	8B-/L 8d 8f	.	.	.	.	.	.	.
.	8B-/J 8d 8f	.	.	.	.	.	.	.
*	*Xtremolo	*	*	*	*	*	*	*
!	!	!LO:DY:a	!	!	!	!	!	!
4AA/	8r	<	4AA/	-ri-	.	.	.	.
.	8c/ 8f	.	.	.	.	.	.	.
=18	=18	=18	=18	=18	=18	=18	=18	=18
!	!	!	!LO:TX:a:i:t=cres	!	!	!	!	!
4BB-/	8r	.	(4BB-/	-e	.	2.r	.	.
.	8B-/ 8d	.	.	.	.	.	.	.
!	!	!	!LO:TX:a:t=+	!	!	!	!	!
*	*rep	*	*	*	*	*	*	*
4D\	8r	.	4D\)	.	.	.	.	.
.	8B-/ 8d	.	.	.	.	.	.	.
*	*Xrep	*	*	*	*	*	*	*
*	*rep	*	*	*	*	*	*	*
4G\	8r	[	4G^^\	e-	.	.	.	.
.	8B-/ 8d	.	.	.	.	.	.	.
*	*Xrep	*	*	*	*	*	*	*
=19	=19	=19	=19	=19	=19	=19	=19	=19
2BB-\ 2F	8r	.	2F\	-le-	.	2.r	.	.
*	*tremolo	*	*	*	*	*	*	*
.	8B-/L 8d	.	.	.	.	.	.	.
.	8B-/ 8d	.	.	.	.	.	.	.
.	8B-/J 8d	.	.	.	.	.	.	.
*	*Xtremolo	*	*	*	*	*	*	*
!	!	!	!LO:TX:a:i:t=dim	!	!	!	!	!
4D\	8r	.	4D\	-i-	.	.	.	.
.	8B-/ 8d 8f	.	.	.	.	.	.	.
=20	=20	=20	=20	=20	=20	=20	=20	=20
*	*^	*	*	*	*	*	*	*
2BB-/	4b-/	8rc	.	[2.BB-\	-son	.	2.r	.	.
.	.	8d\ 8f	.	.	.	.	.	.	.
.	4dd/	8rc	.	.	.	.	.	.	.
.	.	8d\ 8f	.	.	.	.	.	.	.
4BB-\ 4B-	4ee-/	8rc	.	.	.	.	.	.	.
.	.	8e-\ 8g	.	.	.	.	.	.	.
=21	=21	=21	=21	=21	=21	=21	=21	=21	=21
2BB-\ 2B-	4dd/	8rc	.	2.BB-\_	.	.	4r	.	.
.	.	8d\ 8f	.	.	.	.	.	.	.
.	4b-/	8b-\L	.	.	.	.	4B-\	Ky-	.
.	.	8f\	.	.	.	.	.	.	.
4BB-\ 4A	4cc/	8cc\	.	.	.	.	4G\	-ri-	.
.	.	8f\J	.	.	.	.	.	.	.
!!LO:LB:g=original	!	!	!	!	!	!	!	!	!
!!LO:PB:g=original	!	!	!	!	!	!	!	!	!
=22	=22	=22	=22	=22	=22	=22	=22	=22	=22
!	!	!	!	!	!	!LO:DY:a	!	!	!LO:DY:a
2BB-\ 2B-	2dd/	8rc	.	2BB-\]	.	<	4F#X/	-e	<
.	.	4d\ 4f	.	.	.	.	.	.	.
.	.	.	.	.	.	.	4D/	.	.
.	.	4d\ 4f	.	.	.	.	.	.	.
4BBn^^\ 4Bn	4dd/	.	.	4BBn\	e-	[	4G/	e-	[
.	.	8f\ 8g	.	.	.	.	.	.	.
*	*v	*v	*	*	*	*	*	*	*
=23	=23	=23	=23	=23	=23	=23	=23	=23
!	!	!	!	!	!	!	!	!LO:DY:a
2C\ 2c	8cc/L	.	2C\	-le-	.	2E-/	-le-	>
.	8g/	.	.	.	.	.	.	.
.	8e-/	.	.	.	.	.	.	.
.	8g/	.	.	.	.	.	.	.
4GG/ 4G	8bn/	.	4G\	-i-	.	4G/	-i-	]
.	8g/J	.	.	.	.	.	.	.
=24	=24	=24	=24	=24	=24	=24	=24	=24
2CC/ 2C	(8cc/L	.	2C\	-son	.	2c\	-son	.
.	8e-/	.	.	.	.	.	.	.
.	8g/	.	.	.	.	.	.	.
.	8cc/J	.	.	.	.	.	.	.
4r	4ee-\)	.	4r	.	.	4r	.	.
=25	=25	=25	=25	=25	=25	=25	=25	=25
2FF/ 2F	2c/ 2f 2a 2cc	f	2.r	.	.	2.r	.	.
4FF/ 4F	4c/ 4f 4a 4cc	.	.	.	.	.	.	.
=26	=26	=26	=26	=26	=26	=26	=26	=26
2FF/ 2F	(4c/ 4f 4a 4cc	.	2.r	.	.	2.r	.	.
.	4B-/) 4g 4b-	.	.	.	.	.	.	.
4FF/ 4F	4c/ 4a 4cc	.	.	.	.	.	.	.
=27	=27	=27	=27	=27	=27	=27	=27	=27
!	!	!LO:DY:a	!	!	!	!	!	!
[2BB-\ [2F	(2d/ 2b- 2dd	>	2.r	.	.	2.r	.	.
4BB-\] 4D 4F]	4d/ 4b-	]]	.	.	.	.	.	.
=28	=28	=28	=28	=28	=28	=28	=28	=28
2BB-\ 2B-	2d/) 2f	.	2.r	.	.	2.r	.	.
4r	[4f/	.	.	.	.	.	.	.
=29	=29	=29	=29	=29	=29	=29	=29	=29
!	!	!	!	!	!LO:DY:a	!	!	!LO:DY:a
2FF/ 2F	(8f/L]	p	2.A\	Chri-	p	2.c\	Chri-	p
.	8f/	.	.	.	.	.	.	.
.	8a/	.	.	.	.	.	.	.
.	8cc/J	.	.	.	.	.	.	.
!	!	!LO:DY:a	!	!	!	!	!	!
4F\ 4A	8een\L	<	.	.	.	.	.	.
.	8ff\J)	.	.	.	.	.	.	.
=30	=30	=30	=30	=30	=30	=30	=30	=30
*^	*	*	*	*	*	*	*	*
!	!	!	!	!	!	!LO:DY:a	!	!	!LO:DY:a
4A/ 4c	2F\	(8f\L	[	(4A\	-ste	<	(4c\	-ste	<
.	.	8ff\J	.	.	.	.	.	.	.
4G/ 4B-	.	8een\L	.	4G\)	.	.	4B-\)	.	.
.	.	8ff\	.	.	.	.	.	.	.
4A/ 4c	4ryy	8ee-X\	.	4A\	e-	[	4c\	e-	[
.	.	8ff\J)	.	.	.	.	.	.	.
*v	*v	*	*	*	*	*	*	*	*
!!LO:LB:g=original	!	!	!	!	!	!	!	!
=31	=31	=31	=31	=31	=31	=31	=31	=31
!	!	!	!	!	!	!	!	!LO:DY:a
2.BB-\ 2.B-	8dd\L	.	2B-\	-le-	.	2d\	-le-	>
.	8ff\	.	.	.	.	.	.	.
.	8dd\	.	.	.	.	.	.	.
.	8b-\	.	.	.	.	.	.	.
.	8f\	.	4D\	-i-	.	4B-\	-i-	]
.	8b-\J	.	.	.	.	.	.	.
=32	=32	=32	=32	=32	=32	=32	=32	=32
2BB-\ 2B-	8dd\L	.	2D\	-son	.	2F/	-son	.
.	8b-\J	.	.	.	.	.	.	.
.	8f/L	.	.	.	.	.	.	.
.	8dd/	.	.	.	.	.	.	.
4AA^^\ 4A	(8f#X/	.	4r	.	.	4r	.	.
.	8dd/J)	.	.	.	.	.	.	.
=33	=33	=33	=33	=33	=33	=33	=33	=33
2.GG/ 2.G	(8g/L	.	2.G\	Chri-	.	2.B-\	Chri-	.
.	8b-/	.	.	.	.	.	.	.
.	8dd/	.	.	.	.	.	.	.
.	8b-/	.	.	.	.	.	.	.
.	8g/	.	.	.	.	.	.	.
.	8d/J)	.	.	.	.	.	.	.
=34	=34	=34	=34	=34	=34	=34	=34	=34
!	!	!LO:DY:a	!	!	!	!	!	!
4D\	8r	<	(4D\	-ste	.	(4A\	-ste	.
.	8f#X/ 8a 8dd	.	.	.	.	.	.	.
4GG/ 4G	8r	[	4G\)	.	.	4B-\)	.	.
.	8g\ 8b- 8dd	.	.	.	.	.	.	.
!	!	!LO:DY:a	!	!	!	!	!	!
4D\	8r	>]	4D\	e-	.	4A\	e-	.
.	8f#/ 8a 8dd	.	.	.	.	.	.	.
=35	=35	=35	=35	=35	=35	=35	=35	=35
4GG/	8r	.	2BB-\	-le-	.	2G\	-le-	.
.	8g\ 8b- 8dd	.	.	.	.	.	.	.
4D\	8g\ 8b- 8dd	.	.	.	.	.	.	.
.	8g\ 8b- 8dd	.	.	.	.	.	.	.
4G\	8g\ 8b- 8dd	.	4G\	-i-	.	4B-\	-i-	.
.	8g\ 8b- 8dd	.	.	.	.	.	.	.
=36	=36	=36	=36	=36	=36	=36	=36	=36
!	!	!LO:DY:a	!	!	!	!	!	!
4D\	8r	<	4D\	-son	.	4A\	-son	.
.	8f#X/ 8a 8dd	.	.	.	.	.	.	.
4G\	8r	[	4G\	Chri-	.	4B-\	Chri-	.
.	8g\ 8b- 8dd	.	.	.	.	.	.	.
!	!	!LO:DY:a	!	!	!	!	!	!
4D\	8r	>]	4D\	-ste	.	4A\	-ste	.
.	8f#/ 8a 8dd	.	.	.	.	.	.	.
=37	=37	=37	=37	=37	=37	=37	=37	=37
4GG/	(8b-\L	.	2.BB-\	e-	.	2.G/	e-	.
.	8g\	.	.	.	.	.	.	.
2G^^\	8b-\	.	.	.	.	.	.	.
.	8dd\	.	.	.	.	.	.	.
.	8ff#X\	.	.	.	.	.	.	.
.	8gg\J)	.	.	.	.	.	.	.
=38	=38	=38	=38	=38	=38	=38	=38	=38
2CC/ 2C	8r	.	2C\	-le-	.	2A\	-le-	.
.	(8a\L	.	.	.	.	.	.	.
.	8ffn\	.	.	.	.	.	.	.
.	8ee-\J	.	.	.	.	.	.	.
4C\ 4c	8cc\L	.	4E-\	-i-	.	4A\	-i-	.
.	8a\J)	.	.	.	.	.	.	.
=39	=39	=39	=39	=39	=39	=39	=39	=39
!	!	!LO:DY:a	!LO:TX:t=P:problem: brak wpisanej pauzy	!	!	!	!	!
2D\ 2d	8f#X/L	p	2D\	-son	.	2F#X/ 2d	-son	.
.	8a/	.	.	.	.	.	.	.
.	8dd/	.	.	.	.	.	.	.
.	8a/	.	.	.	.	.	.	.
4D\	8f#/	.	4ryy	.	.	4r	.	.
.	8a/J	.	.	.	.	.	.	.
=40	=40	=40	=40	=40	=40	=40	=40	=40
!	!	!LO:DY:a	!	!	!	!	!	!
4DD/	8dd/L	<	2.r	.	.	2.r	.	.
.	8d/	.	.	.	.	.	.	.
!	!	!LO:DY:a	!	!	!	!	!	!
2r	8c#X/	> ] ]]	.	.	.	.	.	.
.	8d/	.	.	.	.	.	.	.
.	8e-/	.	.	.	.	.	.	.
.	8d/J	.	.	.	.	.	.	.
!!LO:LB:g=original	!	!	!	!	!	!	!	!
=41	=41	=41	=41	=41	=41	=41	=41	=41
*^	*	*	*	*	*	*	*	*
4GGG/ 4GG	4ryy	8r	.	4r	.	.	(2G\	Chri-	.
.	.	8d/L	.	.	.	.	.	.	.
!	!	!	!LO:DY:a	!	!	!LO:DY:a	!	!	!
[2GG/	4GG\	8g/ 8bn	<	4G\	Chri-	p	.	.	.
.	.	8d/	.	.	.	.	.	.	.
!	!	!	!	!	!	!LO:DY:a	!	!	!LO:DY:a
.	(4FF\	8g/ 8b	.	4F\	-ste	<	4Bn\)	.	<
.	.	8d/J	.	.	.	.	.	.	.
=42	=42	=42	=42	=42	=42	=42	=42	=42	=42
2.GG/]	4EE-\)	8g/L 8cc	.	4E-\	e-	.	(4c\	-ste	.
.	.	8d/	.	.	.	.	.	.	.
.	4DD\	8g/ 8bn	.	4D\	-lei-	.	4d\)	.	[
.	.	8f/J	.	.	.	.	.	.	.
.	4CC\	4cc\	[	4C\	-son	[	4e-\	e-	.
=43	=43	=43	=43	=43	=43	=43	=43	=43	=43
!	!	!	!	!	!	!	!	!	!LO:DY:a
4rC	4FFF\	8r	.	4r	.	.	2F/	-le-	<
.	.	8f/L	<	.	.	.	.	.	.
!	!	!	!	!	!	!LO:DY:a	!	!	!
[2FF/	4FF\	8a/	.	4F\	Chri-	<	.	.	.
.	.	8f/	.	.	.	.	.	.	.
.	4EE-\	8a/ 8cc	.	4E-\	-ste	.	4A\	-i-	.
.	.	8f/J	.	.	.	.	.	.	.
=44	=44	=44	=44	=44	=44	=44	=44	=44	=44
2.FF/]	4DD\	8b-/L	.	4D\	e-	.	4B-\	-son	.
.	.	8f/	.	.	.	.	.	.	.
.	4CC\	8g-X/ 8a	.	4C\	-le-	.	4c\	Chri-	.
.	.	8f/	.	.	.	.	.	.	.
.	4BBB-\	8dd/	[	4BB-\	-i-	[	4d\	.	[
.	.	8b-/J	.	.	.	.	.	.	.
*v	*v	*	*	*	*	*	*	*	*
=45	=45	=45	=45	=45	=45	=45	=45	=45
!	!	!	!	!	!	!	!	!LO:DY:a
2.AAA/ 2.AA	8r	f	2AA^^/	-son	.	2c#X^^\	-ste	< f
.	8en/L	.	.	.	.	.	.	.
.	8a/ 8cc#X	.	.	.	.	.	.	.
.	8e/	.	.	.	.	.	.	.
.	8a/ 8cc#	.	4En\	e-	.	4c#\	e-	.
.	8b-/J	.	.	.	.	.	.	.
=46	=46	=46	=46	=46	=46	=46	=46	=46
2DD/ 2D	8f#X\L 8dd	.	2F#X\	-le-	.	2d\	-le-	[
.	8a\	.	.	.	.	.	.	.
.	8f#\	.	.	.	.	.	.	.
.	8a\	.	.	.	.	.	.	.
!	!	!	!	!	!	!	!	!LO:DY:a
4CC#X/ 4C#X	8een\ 8aa	.	4En\	-i-	.	4c#X\	-i-	>
.	8a\J	.	.	.	.	.	.	.
=47	=47	=47	=47	=47	=47	=47	=47	=47
2DD/ 2D	2f#X/ 2dd	fp	2D\	-son	.	2d\	-son	]
4D\	4f#/ 4dd	.	4r	.	.	4r	.	.
=48	=48	=48	=48	=48	=48	=48	=48	=48
(4D\	(4f#X/ 4dd	.	2.r	.	.	2.r	.	.
4Cn/)	4fn/) 4a 4ee-	.	.	.	.	.	.	.
4F^^\	4e-/ 4f 4a	.	.	.	.	.	.	.
!!LO:LB:g=original	!	!	!	!	!	!	!	!
!!LO:PB:g=original	!	!	!	!	!	!	!	!
=49	=49	=49	=49	=49	=49	=49	=49	=49
*^	*^	*	*	*	*	*	*	*
!	!	!	!	!	!	!	!LO:DY:a	!	!	!
2B-/	(2.BB-\	4b-/	2d\ 2f	f	2B-^^\	Ky-	f	2.r	.	.
.	.	4dd/	.	.	.	.	.	.	.	.
4A/	.	4cc/	4c\ 4f	.	4A\	-ri-	.	.	.	.
=50	=50	=50	=50	=50	=50	=50	=50	=50	=50	=50
*	*	*	*^	*	*	*	*	*	*	*
4G/	2.BB\)	4b-/	4ryy	4B-\	.	(4G\	-e	.	2.r	.	.
4A/	.	4cc/	[2f\	4c\	.	4A\)	.	.	.	.	.
4B-/	.	4dd/	.	4d\	.	4B-\	e-	.	.	.	.
=51	=51	=51	=51	=51	=51	=51	=51	=51	=51	=51	=51
2A/	2.BB-\	2cc/	4f\]	2c/	.	2A\	-le-	.	2c^^\	Ky-	.
.	.	.	[2f\	.	.	.	.	.	.	.	.
4G/	.	4b-/	.	(4B-\	.	4G\	-i-	.	4B-\	-ri-	.
=52	=52	=52	=52	=52	=52	=52	=52	=52	=52	=52	=52
4F/	2.BB-\	4a/	4f\]	4A\)	.	4F\	-son	.	4A\	-e	.
4G/	.	4b-/	[2f\	4B-\	.	4G\	Ky-	.	4B-\	.	.
4A/	.	4cc/	.	4c\	.	4A\	-ri-	.	4c\	e-	.
*v	*v	*	*	*	*	*	*	*	*	*	*
=53	=53	=53	=53	=53	=53	=53	=53	=53	=53	=53
2BB-\ 2B-	2dd/	4f\]	2ryy	.	2B-\	-e	.	2d\	-le-	.
.	.	[2f\	.	.	.	.	.	.	.	.
4FF/ 4F	4cc/	.	(8f\L	.	4F\	e-	.	4c\	-i-	.
.	.	.	8e-\J	.	.	.	.	.	.	.
=54	=54	=54	=54	=54	=54	=54	=54	=54	=54	=54
2BBB-/ 2BB- 2B-	4b-/)	4f\]	4d\	.	4D\	-le-	.	4B-\	-son	.
.	4cc/	2f\	4ryy	.	4F\	.	.	4c\	Ky-	.
4BB-\ 4B-	4dd/	.	4ryy	.	4B-\	-i-	.	4d\	-ri-	.
*	*v	*v	*v	*	*	*	*	*	*	*
=55	=55	=55	=55	=55	=55	=55	=55	=55
2.BB-^^\ 2.B-	(4f\ 4cc 4ee-	.	4c\	-son	.	(4e-\	-e	.
.	4f/ 4cc	.	4A\	Ky-	.	4c\)	.	.
.	4b-\) 4dd	.	4B-\	-ri-	.	4d\	e-	.
!!LO:LB:g=original	!	!	!	!	!	!	!	!
=56	=56	=56	=56	=56	=56	=56	=56	=56
2.GG^^/ 2.G	4cc\ 4ee-	.	(4c\	-e	.	(4e-\	-le-	.
.	4a\ 4cc	.	4A\)	.	.	4c\)	.	.
.	4b-\ 4dd	.	4B-\	e-	.	4d\	-i-	.
=57	=57	=57	=57	=57	=57	=57	=57	=57
2.FF#X^^/ 2.F#X	4cc\ 4ee-	.	(4c\	-le-	.	4e-\	-son	.
.	4a\ 4cc	.	4A\)	.	.	4c\	e-	.
.	4b-\ 4dd	.	4B-\	-i-	.	4d\	-lei-	.
=58	=58	=58	=58	=58	=58	=58	=58	=58
!	!LO:TX:t=P:problem: niedopisana kropka	!	!	!	!	!	!	!
2.FF^^/ 2.F	4cc\ 4ee-	.	2.c^\	-son	.	2.e-^\	-son	.
!	!LO:TX:a:i:t=cres    _    _    _    _    _    _    cen    _    _    _    _    _    _    do	!	!	!	!	!	!	!
.	4f/ 4a 4cc	.	.	.	.	.	.	.
.	4cc\ 4dd#X	.	.	.	.	.	.	.
=59	=59	=59	=59	=59	=59	=59	=59	=59
2.EEn^^/ 2.En	4ccn\ 4een	.	2.r	.	.	2.r	.	.
.	4en/ 4a 4cc	.	.	.	.	.	.	.
.	4cc\ 4ee	.	.	.	.	.	.	.
=60	=60	=60	=60	=60	=60	=60	=60	=60
2.EE-X^^/ 2.E-X	4cc\ 4ff	.	4r	.	.	4r	.	.
.	4f/ 4a 4cc	.	4r	.	.	4r	.	.
.	4cc\ 4ff	.	4F\	e-	.	4c\	e-	.
=61	=61	=61	=61	=61	=61	=61	=61	=61
!	!	!	!	!	!LO:DY:a	!	!	!LO:DY:a
2.DD/ 2.D	4b-\ 4ff	f	(2.D^^\	-le-	f	[2.f^^\	-le-	f
.	4f/	.	.	.	.	.	.	.
.	[4b-\ [4ff	.	.	.	.	.	.	.
=62	=62	=62	=62	=62	=62	=62	=62	=62
2.EE-/ 2.E-	4g\ 4b-] 4ff]	>	2E-\)	.	.	(4f\]	.	.
.	4cc\ 4ee-X	.	.	.	.	4e-\)	.	.
.	4g/	.	4E-\	-i-	.	4c\	-i-	.
!!LO:LB:g=original	!	!	!	!	!	!	!	!
=63	=63	=63	=63	=63	=63	=63	=63	=63
!	!	!	!	!	!LO:DY:a	!	!	!LO:DY:a
2.FF/ 2.F	(4b-\ 4dd	] p	2D\	-son	<	4B-\	-son	<
.	4f/	.	.	.	.	4F/	.	[
!	!	!	!	!	!LO:DY:a	!	!	!LO:DY:a
.	4g/)	.	4E-\	e-	[ > ]]	4G/	e-	>]
=64	=64	=64	=64	=64	=64	=64	=64	=64
2FFF/ 2FF	4a\ 4cc	.	2F\	-le-	.	2A/	-le-	.
.	4f/	.	.	.	.	.	.	.
!	!	!	!	!	!LO:DY:a	!	!	!LO:DY:a
4FF/ 4F	4e-/ 4a	.	4E-\	-i-	p	4c\	-i-	p
=65	=65	=65	=65	=65	=65	=65	=65	=65
2BB-\ 2B-	4d/ 4b-	.	2D\	-son	.	2B-\	-son	.
.	[2d/ [2b- [2dd	sf	.	.	.	.	.	.
4FFn/ 4F#X	.	.	4r	.	.	4r	.	.
=66	=66	=66	=66	=66	=66	=66	=66	=66
2GG/ 2G	4d/] 4b-] 4dd]	.	2.r	.	.	2.r	.	.
.	[2d/ [2b- [2dd	.	.	.	.	.	.	.
4EEn/ 4En	.	.	.	.	.	.	.	.
=67	=67	=67	=67	=67	=67	=67	=67	=67
2FF/ 2F	4d/] 4b-] 4dd]	.	2.r	.	.	2.r	.	.
.	[2d/ [2b- [2dd	.	.	.	.	.	.	.
4FF#X/ 4F#X	.	.	.	.	.	.	.	.
=68	=68	=68	=68	=68	=68	=68	=68	=68
2GG/ 2G	4d/] 4b-] 4dd]	.	2.r	.	.	2.r	.	.
.	2d/ 2b- 2dd	.	.	.	.	.	.	.
4EEn/ 4En	.	.	.	.	.	.	.	.
=69	=69	=69	=69	=69	=69	=69	=69	=69
4F\	8r	.	4r	.	.	4r	.	.
.	(8b-\L	<	.	.	.	.	.	.
4D\	8dd\	.	4r	.	.	4r	.	.
.	8ff\	.	.	.	.	.	.	.
!	!	!	!	!	!LO:DY:a	!	!	!LO:DY:a
4BB-/	8bb-\	.	4D\	Ky-	p	4B-\	Ky-	p
.	8ddd\J)	[	.	.	.	.	.	.
=70	=70	=70	=70	=70	=70	=70	=70	=70
!	!	!	!	!	!LO:DY:a	!	!	!LO:DY:a
2GG/ 2G	4r	.	2G\	-ri-	<	2B-\	-ri-	<
.	[2b-\ [2dd [2bb-	sf	.	.	.	.	.	.
4GGG/ 4GG	.	.	4G\	-e	[	4B-\	-e	[
=71	=71	=71	=71	=71	=71	=71	=71	=71
!	!	!	!	!	!LO:DY:a	!	!	!LO:DY:a
2BBB-/ 2BB-	4b-\] 4dd] 4bb-]	.	4F\	e-	p	4d\	e-	p
.	[2b-\ [2dd [2bb-	sf	4D\	.	.	4B-\	.	.
4BBB-/ 4BB-	.	.	4BB-\	.	.	4d\	.	.
=72	=72	=72	=72	=72	=72	=72	=72	=72
!	!	!	!	!	!LO:DY:a	!	!	!LO:DY:a
2GGG/ 2GG	4b-\] 4dd] 4bb-]	.	2G\	-le-	<	2B-\	-le-	<
.	2b-\ 2dd 2bb-	sf	.	.	.	.	.	.
4GGG-X/ 4GG-X	.	.	4G-X\	-i-	[	4B-\	-i-	[
!!LO:LB:g=original	!	!	!	!	!	!	!	!
!!LO:PB:g=original	!	!	!	!	!	!	!	!
=73	=73	=73	=73	=73	=73	=73	=73	=73
!	!	!	!LO:TX:t=P:problem: źle podpisany tekst, w źródle koniec tekstu jest na "i" (brak "-son")	!	!LO:DY:a	!źle podpisany tekst, w źródle koniec tekstu jest na "i" (brak "-son")	!	!LO:DY:a
4FFF/ 4FF	4b-\ 4dd 4bb-	.	4F\	-son	p	4d\	-son	p
2r	2r	.	2r	.	.	2r	.	.
=74	=74	=74	=74	=74	=74	=74	=74	=74
!	!	!	!	!	!	!LO:TX:b:i:t=ten	!	!LO:DY:a
2.En\ 2.B- 2.d-X	4r	p	2En^^\	Ky-	.	4B-\	Ky-	p
.	4r	.	.	.	.	4A\	.	.
.	(4g\ 4gg	.	4E\	-ri-	.	4G\	-ri-	.
=75	=75	=75	=75	=75	=75	=75	=75	=75
!	!	!	!	!	!	!	!	!LO:DY:a
4F\ 4B- 4d	4f\ 4ff	.	2D\	-e	.	2F/	-e	<
2r	4dd\	.	.	.	.	.	.	.
.	4b-\)	.	4D\	e-	.	4B-\	e-	[[
=76	=76	=76	=76	=76	=76	=76	=76	=76
!	!	!	!	!	!	!	!	!LO:DY:a
(4FF/ 4F	4r	.	2F\	-le-	.	2d\	-le-	>
4EE-/ 4E-	4f\ 4ff	.	.	.	.	.	.	.
4CC/) 4C	4a\ 4aa	<	4E-X\	-i-	.	4c\	-i-	]]
=77	=77	=77	=77	=77	=77	=77	=77	=77
2BBB-/ 2BB-	4b-\ 4bb-	[	2D\	-son	.	2B-\	-son	.
.	[2dd\ [2bb- [2ddd	.	.	.	.	.	.	.
4FF#X^^/ 4F#X	.	.	4r	.	.	4r	.	.
=78	=78	=78	=78	=78	=78	=78	=78	=78
2GG^^/ 2G	4dd\] 4bb-] 4ddd]	.	2.r	.	.	2.r	.	.
.	2dd\ 2bb- 2ddd	.	.	.	.	.	.	.
4EEn^^/ 4En	.	.	.	.	.	.	.	.
=79	=79	=79	=79	=79	=79	=79	=79	=79
2FF^^/ 2F	4dd\ 4bb- 4ddd	.	2.r	.	.	2.r	.	.
.	2dd\ 2bb- 2ddd	.	.	.	.	.	.	.
4FF#X^^/ 4F#X	.	.	.	.	.	.	.	.
=80	=80	=80	=80	=80	=80	=80	=80	=80
2GG^^/ 2G	4dd\ 4bb- 4ddd	.	2.r	.	.	2.r	.	.
.	2dd\ 2bb- 2ddd	.	.	.	.	.	.	.
4EEn^^/ 4En	.	.	.	.	.	.	.	.
=81	=81	=81	=81	=81	=81	=81	=81	=81
4FF^^/ 4F	4dd\ 4bb- 4ddd	.	2.r	.	.	2.r	.	.
2r	2r	.	.	.	.	.	.	.
=82	=82	=82	=82	=82	=82	=82	=82	=82
!	!	!	!	!	!	!	!	!LO:DY:a
2.r	2.r	.	2.r	.	.	(4F/	Ky-	f
.	.	.	.	.	.	4B-\)	.	.
.	.	.	.	.	.	4c\	-ri-	.
!!LO:LB:g=original	!	!	!	!	!	!	!	!
=83	=83	=83	=83	=83	=83	=83	=83	=83
!	!	!	!	!	!LO:DY:a	!	!	!
[2.FF/ [2.F	[2.f/ [2.b- [2.dd	mf	(4F\	Ky-	<	[2.d\	-e	.
.	.	.	4B-\)	.	[	.	.	.
!	!	!	!	!	!LO:DY:a	!	!	!
.	.	.	4G\	-ri-	>]	.	.	.
=84	=84	=84	=84	=84	=84	=84	=84	=84
2FF/] 2F]	2f/] 2b-] 2dd]	.	2F\	-e	.	(4d\]	.	.
!	!	!	!	!	!	!	!	!LO:DY:a
.	.	.	.	.	.	4F\)	.	<
4FF/ 4F	4f/ 4b- 4dd	.	4D\	e-	.	4B-\	e-	[
=85	=85	=85	=85	=85	=85	=85	=85	=85
!	!	!	!	!	!LO:DY:a	!	!	!LO:DY:a
2FF/ 2F	2d/ 2f 2b-	.	2F\	-le-	>	2d\	-le-	>
4FF/ 4F	4e-/ 4f 4a	.	4A\	-i-	]	4e-\	-i-	]
=86	=86	=86	=86	=86	=86	=86	=86	=86
2BB-\ 2F	2d/ 2f 2b-	.	2B-\	-son	.	2d\	-son	.
4GG-X/ 4G-X	4e-/ 4b- 4cc#X 4een	sf	4r	.	.	4r	.	.
=87	=87	=87	=87	=87	=87	=87	=87	=87
2.FF/ 2.F	2.f\ 2.b- 2.dd 2.ff	sf	2.r	.	.	2.r	.	.
=88	=88	=88	=88	=88	=88	=88	=88	=88
2.FF/ 2.F	2.f\ 2.a 2.ff	.	2.r	.	.	4r	.	.
.	.	.	.	.	.	(4F\	e-	.
.	.	.	.	.	.	4G\)	.	.
=89	=89	=89	=89	=89	=89	=89	=89	=89
*^	*^	*	*	*	*	*	*	*
!	!	!	!	!	!	!	!	!	!	!LO:DY:a
2.c/	2F\	(4ee-/	4rc	.	2.r	.	.	2A\	-le-	>
.	.	4cc/	[2f\	.	.	.	.	.	.	.
.	4E-\	4a/)	.	.	.	.	.	4c\	-i-	]
*v	*v	*	*	*	*	*	*	*	*	*
=90	=90	=90	=90	=90	=90	=90	=90	=90	=90
4D\	4ryy	4f\] 4b-	.	2.r	.	.	2B-\	-son	.
4r	4rb	2ryy	.	.	.	.	.	.	.
4EEn/ 4En	4g/ 4b- 4cc#X 4gg	.	sf	.	.	.	4r	.	.
*	*v	*v	*	*	*	*	*	*	*
=91	=91	=91	=91	=91	=91	=91	=91	=91
[2.FF/ [2.F	[2.f\ [2.b- [2.dd [2.ff	sf	4r	.	.	2.r	.	.
.	.	.	4F\	Ky-	.	.	.	.
.	.	.	4F\	-ri-	.	.	.	.
=92	=92	=92	=92	=92	=92	=92	=92	=92
!	!	!	!	!	!LO:DY:a	!	!	!
4FF/] 4F]	4f\] 4b-] 4dd] 4ff]	.	(4F\	-e	<	2r	.	.
!	!	!	!	!	!LO:DY:a	!	!	!
2r	2r	.	4B-\)	.	[ >	.	.	.
.	.	.	4G\	e-	]]	4G/	e-	.
!!LO:LB:g=original	!	!	!	!	!	!	!	!
=93	=93	=93	=93	=93	=93	=93	=93	=93
4r	4r	.	2F\	-le-	.	2F/	-le-	.
4F\ 4c	4e-/ 4f 4a	.	.	.	.	.	.	.
4r	4r	.	4E-\	-i-	.	4A/	-i-	.
=94	=94	=94	=94	=94	=94	=94	=94	=94
4BB-\ 4B-	4d/ 4f 4b-	.	2D\	-son	.	2B-\	-son	.
4BB-\ 4B-	4d/ 4f 4b-	.	.	.	.	.	.	.
4BB-\ 4B-	4e-^/ 4g 4b-	.	4G^\	e-	.	4e-^\	e-	.
=95	=95	=95	=95	=95	=95	=95	=95	=95
*rep	*	*	*	*	*	*	*	*
4BB-\ 4B-	4d^/ 4f 4b-	.	(4F\	-le-	.	(4d\	-le-	.
!	!	!	!LO:TX:a:i:t=cres    _    _    _    _    _    _    _    _    _    _    _    _	!	!	!	!	!
4BB-\ 4B-	4e^/ 4g 4b- 4ee-	.	4G\)	.	.	4e-\)	.	.
4BB-\ 4B-	4d^/ 4f 4b- 4dd	.	4F\	-i-	.	4d\	-i-	.
*Xrep	*	*	*	*	*	*	*	*
=96	=96	=96	=96	=96	=96	=96	=96	=96
*rep	*	*	*	*	*	*	*	*
4BB-\ 4B-	4e-^/ 4g 4b-	.	4G\	-son	.	4e-^\	-son	.
4BB-\ 4B-	4d^/ 4f 4b-	.	4F\	Ky-	.	4d\	Ky-	.
4BB-\ 4B-	4e-^/ 4g 4b-	.	4G\	-ri-	.	4e-\	-ri-	.
*Xrep	*	*	*	*	*	*	*	*
=97	=97	=97	=97	=97	=97	=97	=97	=97
*rep	*	*	*	*	*	*	*	*
4BB-\ 4B-	4d^/ 4f 4b-	.	(4F\	-e	.	(4d^\	-e	.
4BB-\ 4B-	4g^>\ 4b- 4ee- 4gg	.	4G\)	.	.	4e-\)	.	.
4BB-\ 4B-	4f^>\ 4b- 4dd 4ff	.	4B-\	e-	.	4d\	e-	.
*Xrep	*	*	*	*	*	*	*	*
=98	=98	=98	=98	=98	=98	=98	=98	=98
!	!	!	!	!	!LO:DY:a	!	!	!LO:DY:a
4FF\ 4F	2.a\ 2.ee- 2.ff 2.aa	f	2F\	-le-	f	2f^\	-le-	f
4EE-\ 4E-	.	.	.	.	.	.	.	.
4CC\ 4C	.	.	4E-\	-i-	.	4A/	-i-	.
=99	=99	=99	=99	=99	=99	=99	=99	=99
!	!LO:TX:b:i:t=rallent.	!	!	!	!LO:DY:a	!	!	!LO:DY:a
2.BBB-/ 2.BB-	2.b-\ 2.dd 2.bb-	.	2.D\	-son	f	2.B-\	-son	f
=100	=100	=100	=100	=100	=100	=100	=100	=100
2BB-\ 2B-	2d/ 2f 2b-	p	2.r	.	.	2.r	.	.
4BB-\ 4B-	4d/ 4f 4b-	.	.	.	.	.	.	.
=101	=101	=101	=101	=101	=101	=101	=101	=101
2BB-\ 2B-	2d/ 2f 2b-	.	2.r	.	.	2.r	.	.
4r	4r	.	.	.	.	.	.	.
==	==	==	==	==	==	==	==	==
*-	*-	*-	*-	*-	*-	*-	*-	*-
!!!system-decoration: [(s1,s2)]{(s3,s4)}
!!!RDF**kern: > = below
!!!ENC: Arek Malec
!!!END: 2022-02-08
!!!AIN: 1 bass 1 organ 1 tenor
!!!ENC: Jan Barakat
!!!END: 2022-02-14
